assets/Screwdriver/Flat/screwdriver_flat.svg

<svg width="32" height="32" viewBox="0 0 32 32" fill="none" xmlns="http://www.w3.org/2000/svg">
<path d="M3.46952 2.11952L2.11952 3.46952C1.98952 3.59952 1.95952 3.79952 2.05952 3.94952L4.29952 7.69952C4.46952 7.98952 4.77952 8.15952 5.10952 8.15952H5.96952C6.21952 8.15952 6.45952 8.25952 6.63952 8.43952L14.4895 16.2895L16.2795 14.4995L8.43952 6.64952C8.25952 6.46952 8.15952 6.22952 8.15952 5.97952V5.11952C8.15952 4.78952 7.98952 4.47952 7.69952 4.30952L3.94952 2.05952C3.79952 1.95952 3.59952 1.98952 3.46952 2.11952Z" fill="#D3D3D3"/>
<path d="M18.8993 14.1598L18.9996 14.0595C19.5896 13.4695 19.5896 12.5195 19.0096 11.9295C18.4196 11.3395 17.4796 11.3395 16.8896 11.9295L11.9396 16.8795C11.3496 17.4695 11.3496 18.4095 11.9396 18.9995C12.5296 19.5895 13.4696 19.5895 14.0596 18.9995L14.1598 18.8992C13.5617 19.6124 13.5982 20.6682 14.2696 21.3395L22.3996 29.4695C23.1096 30.1795 24.2496 30.1795 24.9596 29.4695L29.4696 24.9595C30.1796 24.2595 30.1796 23.1095 29.4696 22.3995L21.3396 14.2695C20.6682 13.5982 19.6125 13.5616 18.8993 14.1598Z" fill="#F70A8D"/>
<path d="M26.1796 24.7295C26.6196 25.1695 27.3196 25.1695 27.7596 24.7295C28.1996 24.2895 28.1996 23.5795 27.7596 23.1495L20.5996 15.9895C20.1596 15.5495 19.4596 15.5495 19.0196 15.9895C18.5796 16.4295 18.5796 17.1295 19.0196 17.5695L26.1796 24.7295Z" fill="#CA0B4A"/>
<path d="M23.1495 27.7595C23.5895 28.1995 24.2895 28.1995 24.7295 27.7595C25.1595 27.3295 25.1595 26.6195 24.7295 26.1795L17.5695 19.0195C17.1295 18.5795 16.4295 18.5795 15.9895 19.0195C15.5495 19.4595 15.5495 20.1595 15.9895 20.5995L23.1495 27.7595Z" fill="#CA0B4A"/>
</svg>

<svg xmlns="http://www.w3.org/2000/svg" width="32" height="32" fill="none"><path fill="#D3D3D3" d="M3.47 2.12 2.12 3.47c-.13.13-.16.33-.06.48L4.3 7.7c.17.29.48.46.81.46h.86c.25 0 .49.1.67.28l7.85 7.85 1.79-1.79-7.84-7.85a.947.947 0 0 1-.28-.67v-.86c0-.33-.17-.64-.46-.81L3.95 2.06a.381.381 0 0 0-.48.06Z"/><path fill="#F70A8D" d="m18.9 14.16.1-.1c.59-.59.59-1.54.01-2.13a1.49 1.49 0 0 0-2.12 0l-4.95 4.95a1.49 1.49 0 0 0 0 2.12c.59.59 1.53.59 2.12 0l.1-.1a1.804 1.804 0 0 0 .11 2.44l8.13 8.13c.71.71 1.85.71 2.56 0l4.51-4.51c.71-.7.71-1.85 0-2.56l-8.13-8.13a1.804 1.804 0 0 0-2.44-.11Z"/><path fill="#CA0B4A" d="M26.18 24.73c.44.44 1.14.44 1.58 0 .44-.44.44-1.15 0-1.58l-7.16-7.16a1.11 1.11 0 0 0-1.58 0 1.11 1.11 0 0 0 0 1.58l7.16 7.16ZM23.15 27.76c.44.44 1.14.44 1.58 0 .43-.43.43-1.14 0-1.58l-7.16-7.16a1.11 1.11 0 0 0-1.58 0 1.11 1.11 0 0 0 0 1.58l7.16 7.16Z"/></svg>
